src/2-landmarks/service-module--handle-document.svg

<svg width="1300" height="1000" fill="none" xmlns="http://www.w3.org/2000/svg"><path d="M0 900h1300v100H0V900Z" fill="#000"/><path fill-rule="evenodd" clip-rule="evenodd" d="M1189.65 333.086c-3.77 1.408-10.81 1.91-12.65 1.914 0 0-8.3-.069-13.14-1.914-5.44-2.079-8.48-4.109-12.16-8.575-2.49-3.022-4.44-8.223-5.32-10.853a22.077 22.077 0 0 1-.8-3.31l-4.09-24.154s-.5-3.492-.49-5.742c.02-5.351.75-8.493 2.92-13.398 2.23-5.038 4.18-7.735 8.27-11.484 4.35-3.996 7.49-5.742 13.13-7.625 4.38-1.462 7.06-1.907 11.68-1.945 4.96.167 6.81.479 11.55 1.945 4.74 1.577 9.58 4.373 13.26 7.625 3.68 3.252 6.26 7.101 8.27 11.484s2.92 8.615 2.92 13.398c0 1.803-.2 3.959-.49 5.742l-4.86 23.833a25.09 25.09 0 0 1-1.01 3.617c-1.04 2.793-3.21 8.177-5.32 10.829-2.92 3.676-7.16 6.929-11.67 8.613Zm-2.46-6.699c-3.04 1.186-8.71 1.609-10.19 1.613 0 0-6.69-.058-10.58-1.613-4.39-1.752-6.83-3.462-9.8-7.226-1.95-2.474-3.48-6.68-4.22-8.951a20.428 20.428 0 0 1-.74-3.184l-3.27-20.155s-.4-2.943-.39-4.839c.02-4.509.6-7.156 2.35-11.29 1.8-4.246 3.37-6.518 6.66-9.677 3.51-3.368 6.04-4.839 10.58-6.426 3.53-1.232 5.68-1.607 9.41-1.639 4 .141 5.49.403 9.3 1.639 3.82 1.329 7.72 3.685 10.69 6.426 2.96 2.74 5.04 5.983 6.66 9.677s2.35 7.26 2.35 11.29c0 1.52-.16 3.337-.39 4.839l-3.88 19.862a24.563 24.563 0 0 1-.93 3.486c-.87 2.407-2.56 6.742-4.21 8.91-2.35 3.098-5.77 5.839-9.4 7.258Z" fill="#000"/><path fill-rule="evenodd" clip-rule="evenodd" d="M889.121 336.982a3 3 0 0 0 0 4.243l70.003 70.004a3.001 3.001 0 0 0 4.243 0l11.67-11.67 80.203 93.976a5.007 5.007 0 0 0 7.6.066l50.66-59.101-7 52.5-1.28 13H888c-11.046 0-20 8.954-20 20v1c0 11.046 8.954 20 20 20v359h7V541h405v-7H888.5c-7.456 0-13.5-6.044-13.5-13.5s6.044-13.5 13.5-13.5H1300v-7h-21.04c.28-10.498.47-21.054.47-30.838 0-1.662-5.91-57.127-23.43-93.162-15.05-29.175-40.06-34.545-80.18-34.979-36.98-.426-60.32 6.979-85.95 34.197C1069.5 406 1056 428.5 1056 428.5l-42.5-42-10.7-14.7 16.43-16.433a3.003 3.003 0 0 0 0-4.243l-70.005-70.003a3 3 0 0 0-4.243 0l-55.861 55.861Zm74.53 25.937 7.683 30.443-10.088 10.088-64.347-64.346 50.205-50.205 64.346 64.347-12.826 12.826-10.171-13.966c-2.992-4.281-9.286-7.313-14.375-6.135-7.119 1.649-12.415 9.915-10.427 16.948ZM1233.2 500h-119.93l1.23-12.5 5.91-68.427a.97.97 0 0 0-1.7-.717l-57.42 65.487a3 3 0 0 1-4.56-.023L979.5 393.5l-9.293-31.752c-1.353-4.622 2.113-9.248 6.929-9.248a7.22 7.22 0 0 1 6.007 3.215L1006 390l51.5 50s13.5-21.979 37.72-59.485c21.78-29.515 62.28-32.707 80.27-32.494 37.97.425 60.76 3.937 74.96 32.494 16.54 35.272 20.98 91.956 20.98 91.956h.01l-.11 27.529h-30.01l-2.81-30.909-7.46-50.009a1.234 1.234 0 0 0-1.21-1.07 1.235 1.235 0 0 0-1.24 1.324L1232 488l1.2 12Z" fill="#000"/></svg>

<svg width="1300" height="1000" viewBox="0 0 1300 1000" fill="none" xmlns="http://www.w3.org/2000/svg">
<path d="M0 900H1300V1000H0V900Z" fill="black"/>
<path fill-rule="evenodd" clip-rule="evenodd" d="M1189.65 333.086C1185.88 334.494 1178.84 334.996 1177 335C1177 335 1168.7 334.931 1163.86 333.086C1158.42 331.007 1155.38 328.977 1151.7 324.511C1149.21 321.489 1147.26 316.288 1146.38 313.658C1146.02 312.579 1145.77 311.47 1145.58 310.348L1141.49 286.194C1141.49 286.194 1140.99 282.702 1141 280.452C1141.02 275.101 1141.75 271.959 1143.92 267.054C1146.15 262.016 1148.1 259.319 1152.19 255.57C1156.54 251.574 1159.68 249.828 1165.32 247.945C1169.7 246.483 1172.38 246.038 1177 246C1181.96 246.167 1183.81 246.479 1188.55 247.945C1193.29 249.522 1198.13 252.318 1201.81 255.57C1205.49 258.822 1208.07 262.671 1210.08 267.054C1212.09 271.437 1213 275.669 1213 280.452C1213 282.255 1212.8 284.411 1212.51 286.194L1207.65 310.027C1207.4 311.256 1207.07 312.468 1206.64 313.644C1205.6 316.437 1203.43 321.821 1201.32 324.473C1198.4 328.149 1194.16 331.402 1189.65 333.086ZM1187.19 326.387C1184.15 327.573 1178.48 327.996 1177 328C1177 328 1170.31 327.942 1166.42 326.387C1162.03 324.635 1159.59 322.925 1156.62 319.161C1154.67 316.687 1153.14 312.481 1152.4 310.21C1152.06 309.171 1151.83 308.105 1151.66 307.026L1148.39 286.871C1148.39 286.871 1147.99 283.928 1148 282.032C1148.02 277.523 1148.6 274.876 1150.35 270.742C1152.15 266.496 1153.72 264.224 1157.01 261.065C1160.52 257.697 1163.05 256.226 1167.59 254.639C1171.12 253.407 1173.27 253.032 1177 253C1181 253.141 1182.49 253.403 1186.3 254.639C1190.12 255.968 1194.02 258.324 1196.99 261.065C1199.95 263.805 1202.03 267.048 1203.65 270.742C1205.27 274.436 1206 278.002 1206 282.032C1206 283.552 1205.84 285.369 1205.61 286.871L1201.73 306.733C1201.5 307.917 1201.2 309.084 1200.8 310.219C1199.93 312.626 1198.24 316.961 1196.59 319.129C1194.24 322.227 1190.82 324.968 1187.19 326.387Z" fill="black"/>
<path fill-rule="evenodd" clip-rule="evenodd" d="M889.121 336.982C887.949 338.154 887.949 340.053 889.121 341.225L959.124 411.229C960.296 412.4 962.195 412.4 963.367 411.229L975.037 399.559L1055.24 493.535C1057.22 495.881 1060.82 495.913 1062.84 493.601L1113.5 434.5L1106.5 487L1105.22 500H888C876.954 500 868 508.954 868 520V521C868 532.046 876.954 541 888 541V900H895V541H1300V534H888.5C881.044 534 875 527.956 875 520.5C875 513.044 881.044 507 888.5 507H1300V500H1278.96C1279.24 489.502 1279.43 478.946 1279.43 469.162C1279.43 467.5 1273.52 412.035 1256 376C1240.95 346.825 1215.94 341.455 1175.82 341.021C1138.84 340.595 1115.5 348 1089.87 375.218C1069.5 406 1056 428.5 1056 428.5L1013.5 386.5L1002.8 371.8L1019.23 355.367C1020.4 354.195 1020.4 352.296 1019.23 351.124L949.225 281.121C948.053 279.949 946.154 279.949 944.982 281.121L889.121 336.982ZM963.651 362.919L971.334 393.362L961.246 403.45L896.899 339.104L947.104 288.899L1011.45 353.246L998.624 366.072L988.453 352.106C985.461 347.825 979.167 344.793 974.078 345.971C966.959 347.62 961.663 355.886 963.651 362.919ZM1233.2 500H1113.27L1114.5 487.5L1120.41 419.073C1120.46 418.507 1120.01 418.021 1119.44 418.021C1119.16 418.021 1118.89 418.143 1118.71 418.356L1061.29 483.843C1060.09 485.238 1057.92 485.227 1056.73 483.82L979.5 393.5L970.207 361.748C968.854 357.126 972.32 352.5 977.136 352.5C979.55 352.5 981.804 353.707 983.143 355.715L1006 390L1057.5 440C1057.5 440 1071 418.021 1095.22 380.515C1117 351 1157.5 347.808 1175.49 348.021C1213.46 348.446 1236.25 351.958 1250.45 380.515C1266.99 415.787 1271.43 472.471 1271.43 472.471H1271.44L1271.33 500H1241.32L1238.51 469.091L1231.05 419.082C1230.97 418.474 1230.45 418.017 1229.84 418.012C1229.12 418.005 1228.55 418.618 1228.6 419.336L1232 488L1233.2 500Z" fill="black"/>
</svg>
